logos/pouchdb.svg

<?xml version="1.0" encoding="UTF-8" standalone="no"?>
<svg width="256px" height="330px" viewBox="0 0 256 330" version="1.1" xmlns="http://www.w3.org/2000/svg" xmlns:xlink="http://www.w3.org/1999/xlink" preserveAspectRatio="xMidYMid">
        <g fill-opacity="0.9">
            <path d="M18.7517656,0 L0,91.4585788 L53.7815678,142.201905 L18.8389744,204.490549 L89.9403956,329.677363 L167.725011,329.677363 L239.131194,204.490549 L203.885714,142.201905 L255.845275,91.4585788 L238.739223,0 L165.599179,97.4094066 L92.3719267,97.4094066 L18.7517656,0 Z" fill="#6CCB94"></path>
            <path d="M18.8389744,204.490549 L53.78063,142.201905 L128.825201,204.491487 L18.8389744,204.490549 Z" fill="#5DBD85"></path>
            <path d="M53.7815678,142.202842 L128.826139,204.492425 L92.370989,97.4112821 L53.7815678,142.202842 Z" fill="#64C48C"></path>
            <path d="M239.130256,204.490549 L203.883839,142.201905 L128.828015,204.491487 L239.130256,204.490549 Z" fill="#6ECC95"></path>
            <path d="M89.9394579,329.677363 L167.724073,329.677363 L128.827077,204.490549 L89.9394579,329.677363 Z" fill="#5EBE86"></path>
            <path d="M203.883839,142.202842 L128.828015,204.492425 L165.599179,97.4112821 L203.883839,142.202842 Z" fill="#76D29C"></path>
            <path d="M238.739223,0 L255.841524,91.4595165 L203.883839,142.202842 L165.598242,97.4103443 L238.739223,0 Z" fill="#74D09B"></path>
            <path d="M128.825201,204.490549 L167.725011,329.677363 L239.130256,204.490549 L128.825201,204.490549 Z" fill="#64C48C"></path>
            <path d="M128.825201,204.490549 L89.9282051,329.677363 L18.8389744,204.490549 L128.825201,204.490549 Z" fill="#58B880"></path>
            <path d="M18.7517656,0 L0,91.4604542 L53.7815678,142.20378 L92.370989,97.4112821 L18.7517656,0 Z" fill="#5FBF87"></path>
            <path d="M128.825201,204.490549 L165.598242,97.4112821 L92.370989,97.4112821 L128.825201,204.490549 Z" fill="#6ECC95"></path>
        </g>
</svg>

<svg preserveAspectRatio="xMidYMid" viewBox="0 0 256 330" xmlns="http://www.w3.org/2000/svg">
  <g fill-opacity=".9">
    <path fill="#6CCB94" d="M18.752 0 0 91.459l53.782 50.743-34.943 62.289L89.94 329.677h77.785l71.406-125.186-35.245-62.29 51.96-50.742L238.738 0 165.6 97.41H92.372L18.752 0Z"/>
    <path fill="#5DBD85" d="m18.839 204.49 34.942-62.288 75.044 62.29-109.986-.001Z"/>
    <path fill="#64C48C" d="m53.782 142.203 75.044 62.29L92.371 97.41l-38.59 44.792Z"/>
    <path fill="#6ECC95" d="m239.13 204.49-35.246-62.288-75.056 62.29 110.302-.001Z"/>
    <path fill="#5EBE86" d="M89.94 329.677h77.784l-38.897-125.186L89.94 329.677Z"/>
    <path fill="#76D29C" d="m203.884 142.203-75.056 62.29L165.599 97.41l38.285 44.792Z"/>
    <path fill="#74D09B" d="m238.74 0 17.102 91.46-51.958 50.743-38.286-44.793L238.74 0Z"/>
    <path fill="#64C48C" d="m128.825 204.49 38.9 125.187 71.405-125.186H128.825Z"/>
    <path fill="#58B880" d="M128.825 204.49 89.928 329.678 18.84 204.491h109.986Z"/>
    <path fill="#5FBF87" d="M18.752 0 0 91.46l53.782 50.744L92.37 97.41 18.751 0Z"/>
    <path fill="#6ECC95" d="m128.825 204.49 36.773-107.079H92.371l36.454 107.08Z"/>
  </g>
</svg>
